flaticon/gastronomy/doughnut.svg

<svg xmlns="http://www.w3.org/2000/svg" width="32" height="32" viewBox="0 0 24 24">
    <path d="M 23.910156 9.046875 C 23.910156 9.023438 23.910156 9.003906 23.90625 8.980469 C 23.894531 8.925781 23.882812 8.871094 23.871094 8.816406 C 23.863281 8.78125 23.859375 8.746094 23.851562 8.707031 C 23.824219 8.589844 23.796875 8.46875 23.761719 8.351562 C 23.757812 8.335938 23.753906 8.316406 23.75 8.300781 C 22.609375 4.230469 17.703125 1.238281 11.96875 1.238281 C 11.890625 1.238281 11.8125 1.246094 11.734375 1.246094 C 11.53125 1.25 11.328125 1.257812 11.125 1.265625 C 11.007812 1.273438 10.890625 1.277344 10.773438 1.285156 C 10.523438 1.304688 10.277344 1.332031 10.035156 1.359375 C 9.914062 1.375 9.792969 1.390625 9.675781 1.40625 C 9.4375 1.441406 9.199219 1.480469 8.964844 1.527344 C 8.84375 1.546875 8.726562 1.574219 8.609375 1.601562 C 8.445312 1.636719 8.28125 1.675781 8.117188 1.714844 C 7.933594 1.761719 7.75 1.8125 7.570312 1.867188 C 7.4375 1.902344 7.308594 1.945312 7.179688 1.984375 C 6.941406 2.0625 6.707031 2.148438 6.472656 2.234375 C 6.398438 2.265625 6.320312 2.292969 6.246094 2.324219 C 3.902344 3.269531 2.019531 4.777344 0.957031 6.632812 C 0.949219 6.644531 0.941406 6.65625 0.9375 6.667969 C 0.828125 6.855469 0.730469 7.046875 0.644531 7.242188 C 0.601562 7.328125 0.5625 7.414062 0.527344 7.503906 C 0.484375 7.605469 0.445312 7.710938 0.40625 7.816406 C 0.34375 7.992188 0.285156 8.167969 0.238281 8.34375 C 0.230469 8.371094 0.21875 8.398438 0.210938 8.425781 C 0.203125 8.457031 0.203125 8.488281 0.195312 8.515625 C 0.0703125 9.03125 0 9.5625 0 10.101562 L 0.0078125 14.085938 C 0.0078125 18.949219 5.261719 22.761719 11.96875 22.761719 C 18.601562 22.761719 24 18.792969 24 13.914062 L 24 10.101562 C 24 9.746094 23.96875 9.394531 23.910156 9.046875 Z M 22.644531 10.136719 C 22.042969 10.503906 21.792969 11.710938 21.507812 13.378906 C 21.433594 13.804688 21.363281 14.207031 21.296875 14.472656 C 21.257812 14.625 21.191406 14.742188 21.144531 14.792969 C 20.359375 14.570312 19.710938 14.613281 19.226562 14.929688 C 18.46875 15.421875 18.335938 16.402344 18.265625 16.929688 C 18.261719 16.964844 18.246094 16.988281 18.21875 17.003906 C 18.203125 17.011719 18.167969 17.023438 18.125 17 C 18.085938 16.972656 17.992188 16.851562 17.925781 16.761719 C 17.632812 16.367188 17.140625 15.703125 16.078125 15.820312 C 15.210938 15.914062 14.757812 16.851562 14.355469 17.675781 C 14.210938 17.972656 14.074219 18.25 13.945312 18.429688 C 13.792969 18.648438 13.480469 18.730469 13.214844 18.628906 C 13.195312 18.589844 13.171875 18.523438 13.15625 18.472656 C 13.042969 18.15625 12.808594 17.488281 11.875 17.472656 C 11.148438 17.464844 10.816406 18.046875 10.628906 18.398438 C 10.578125 18.492188 10.5 18.632812 10.476562 18.65625 C 10.242188 18.773438 9.984375 18.710938 9.84375 18.503906 C 9.757812 18.378906 9.761719 18.019531 9.765625 17.734375 C 9.769531 17.1875 9.773438 16.503906 9.296875 16.09375 C 9.050781 15.882812 8.722656 15.777344 8.300781 15.777344 C 8.140625 15.777344 7.96875 15.792969 7.78125 15.824219 C 7.246094 15.90625 6.796875 16.308594 6.4375 16.632812 C 6.304688 16.75 6.144531 16.894531 6.074219 16.925781 C 6.035156 16.945312 5.996094 16.945312 5.960938 16.921875 C 5.9375 16.910156 5.886719 16.875 5.875 16.792969 C 5.855469 16.621094 5.808594 16.457031 5.757812 16.257812 C 5.457031 15.132812 4.226562 15.078125 3.492188 15.046875 C 3.285156 15.035156 3.089844 15.027344 2.972656 15 C 2.722656 14.941406 2.523438 14.730469 2.457031 14.445312 C 2.417969 14.289062 2.398438 13.832031 2.378906 13.394531 C 2.304688 11.773438 2.21875 10.683594 1.703125 10.339844 C 1.144531 9.964844 0.871094 9.3125 1.003906 8.695312 C 1.015625 8.648438 1.023438 8.605469 1.035156 8.5625 C 1.085938 8.378906 1.144531 8.199219 1.210938 8.019531 C 1.234375 7.953125 1.261719 7.886719 1.289062 7.820312 C 1.355469 7.660156 1.425781 7.503906 1.503906 7.347656 C 1.550781 7.257812 1.597656 7.167969 1.648438 7.082031 C 1.695312 7 1.742188 6.921875 1.789062 6.84375 C 1.894531 6.671875 2.007812 6.503906 2.128906 6.339844 C 2.15625 6.304688 2.179688 6.273438 2.203125 6.238281 C 3.230469 4.894531 4.773438 3.785156 6.640625 3.050781 C 6.691406 3.03125 6.746094 3.011719 6.796875 2.992188 C 7.03125 2.902344 7.273438 2.816406 7.519531 2.742188 C 7.621094 2.707031 7.726562 2.675781 7.828125 2.648438 C 8.019531 2.59375 8.210938 2.542969 8.402344 2.496094 C 8.539062 2.460938 8.675781 2.429688 8.8125 2.402344 C 8.933594 2.375 9.054688 2.347656 9.179688 2.324219 C 9.386719 2.285156 9.601562 2.253906 9.816406 2.222656 C 9.933594 2.207031 10.054688 2.191406 10.175781 2.175781 C 10.398438 2.148438 10.621094 2.128906 10.847656 2.109375 C 10.960938 2.101562 11.078125 2.097656 11.195312 2.09375 C 11.375 2.082031 11.550781 2.078125 11.730469 2.074219 C 11.8125 2.074219 11.890625 2.070312 11.96875 2.070312 C 17.171875 2.070312 21.558594 4.628906 22.8125 8.082031 C 22.824219 8.105469 22.832031 8.128906 22.839844 8.15625 C 22.871094 8.253906 22.902344 8.351562 22.933594 8.449219 C 22.945312 8.492188 22.957031 8.535156 22.96875 8.574219 C 22.988281 8.660156 23.011719 8.742188 23.027344 8.824219 C 23.039062 8.875 23.050781 8.925781 23.0625 8.976562 C 23.070312 9.035156 23.082031 9.089844 23.089844 9.144531 C 23.148438 9.546875 22.976562 9.933594 22.644531 10.136719 Z M 11.96875 21.933594 C 5.722656 21.933594 0.832031 18.484375 0.832031 14.085938 C 0.832031 14.085938 0.828125 11.773438 0.828125 10.675781 C 0.949219 10.800781 1.078125 10.917969 1.226562 11.015625 C 1.453125 11.257812 1.523438 12.78125 1.550781 13.433594 C 1.574219 13.976562 1.59375 14.40625 1.652344 14.640625 C 1.792969 15.230469 2.230469 15.679688 2.785156 15.808594 C 2.976562 15.851562 3.199219 15.859375 3.457031 15.871094 C 4.222656 15.90625 4.824219 15.972656 4.96875 16.511719 C 5.003906 16.652344 5.039062 16.78125 5.054688 16.902344 C 5.097656 17.21875 5.285156 17.496094 5.5625 17.648438 C 5.828125 17.796875 6.144531 17.808594 6.421875 17.675781 C 6.601562 17.59375 6.78125 17.433594 6.988281 17.25 C 7.269531 17 7.617188 16.6875 7.910156 16.640625 C 8.324219 16.574219 8.617188 16.601562 8.757812 16.71875 C 8.945312 16.882812 8.941406 17.332031 8.9375 17.726562 C 8.933594 18.167969 8.929688 18.625 9.15625 18.964844 C 9.40625 19.339844 9.8125 19.542969 10.238281 19.542969 C 10.441406 19.542969 10.648438 19.496094 10.84375 19.398438 C 11.097656 19.273438 11.226562 19.027344 11.355469 18.789062 C 11.554688 18.421875 11.652344 18.289062 11.863281 18.300781 C 12.21875 18.304688 12.269531 18.445312 12.375 18.746094 C 12.449219 18.964844 12.542969 19.234375 12.824219 19.363281 C 13.46875 19.65625 14.222656 19.464844 14.621094 18.910156 C 14.789062 18.675781 14.9375 18.367188 15.097656 18.039062 C 15.390625 17.4375 15.753906 16.6875 16.167969 16.644531 C 16.753906 16.578125 17.003906 16.90625 17.261719 17.257812 C 17.40625 17.445312 17.539062 17.625 17.734375 17.730469 C 18.007812 17.875 18.328125 17.875 18.597656 17.738281 C 18.863281 17.601562 19.046875 17.339844 19.085938 17.035156 C 19.144531 16.613281 19.238281 15.910156 19.675781 15.625 C 19.960938 15.441406 20.398438 15.433594 20.96875 15.601562 C 21.160156 15.660156 21.351562 15.636719 21.527344 15.535156 C 21.910156 15.320312 22.0625 14.824219 22.097656 14.679688 C 22.175781 14.382812 22.242188 13.980469 22.320312 13.519531 C 22.460938 12.714844 22.746094 11.042969 23.074219 10.84375 C 23.109375 10.820312 23.140625 10.796875 23.171875 10.773438 L 23.171875 13.914062 C 23.171875 18.335938 18.144531 21.933594 11.96875 21.933594 Z M 11.96875 21.933594"/>
    <path d="M 11.792969 6.828125 C 9.238281 6.828125 7.238281 8.101562 7.238281 9.726562 C 7.238281 10.015625 7.3125 10.304688 7.449219 10.589844 C 7.453125 10.601562 7.453125 10.613281 7.457031 10.625 C 8.054688 11.820312 9.796875 12.621094 11.792969 12.621094 C 13.789062 12.621094 15.527344 11.820312 16.125 10.625 C 16.128906 10.613281 16.128906 10.601562 16.132812 10.589844 C 16.273438 10.304688 16.34375 10.011719 16.34375 9.726562 C 16.34375 8.101562 14.34375 6.828125 11.792969 6.828125 Z M 11.792969 7.65625 C 13.808594 7.65625 15.515625 8.605469 15.515625 9.726562 C 15.515625 9.777344 15.511719 9.832031 15.503906 9.886719 C 15.5 9.882812 15.496094 9.882812 15.492188 9.882812 C 15.238281 9.785156 14.976562 9.699219 14.710938 9.625 C 14.667969 9.613281 14.628906 9.601562 14.589844 9.589844 C 14.328125 9.519531 14.0625 9.460938 13.792969 9.410156 C 13.746094 9.402344 13.695312 9.394531 13.648438 9.386719 C 13.375 9.339844 13.097656 9.300781 12.8125 9.277344 C 12.773438 9.273438 12.734375 9.269531 12.695312 9.269531 C 12.398438 9.242188 12.097656 9.230469 11.792969 9.230469 C 11.488281 9.230469 11.1875 9.242188 10.890625 9.269531 C 10.851562 9.269531 10.808594 9.273438 10.769531 9.277344 C 10.488281 9.300781 10.210938 9.339844 9.9375 9.386719 C 9.886719 9.394531 9.839844 9.402344 9.789062 9.410156 C 9.519531 9.460938 9.253906 9.519531 8.996094 9.589844 C 8.953125 9.601562 8.914062 9.613281 8.875 9.625 C 8.605469 9.699219 8.34375 9.785156 8.089844 9.882812 C 8.089844 9.882812 8.085938 9.882812 8.082031 9.886719 C 8.074219 9.832031 8.066406 9.777344 8.066406 9.726562 C 8.066406 8.605469 9.773438 7.65625 11.792969 7.65625 Z M 8.457031 10.628906 C 8.472656 10.625 8.484375 10.617188 8.5 10.613281 C 8.714844 10.535156 8.9375 10.464844 9.160156 10.402344 C 9.199219 10.394531 9.234375 10.382812 9.269531 10.371094 C 9.5 10.3125 9.738281 10.261719 9.980469 10.21875 C 10.027344 10.210938 10.074219 10.199219 10.125 10.191406 C 10.367188 10.152344 10.613281 10.121094 10.863281 10.097656 C 10.90625 10.09375 10.945312 10.09375 10.988281 10.089844 C 11.253906 10.070312 11.519531 10.058594 11.792969 10.058594 C 12.0625 10.058594 12.332031 10.070312 12.59375 10.089844 C 12.636719 10.09375 12.679688 10.09375 12.71875 10.097656 C 12.96875 10.121094 13.214844 10.152344 13.460938 10.191406 C 13.507812 10.199219 13.554688 10.210938 13.605469 10.21875 C 13.84375 10.261719 14.082031 10.3125 14.3125 10.371094 C 14.351562 10.382812 14.386719 10.394531 14.421875 10.402344 C 14.648438 10.464844 14.867188 10.535156 15.082031 10.613281 C 15.097656 10.621094 15.113281 10.625 15.125 10.628906 C 14.5 11.332031 13.214844 11.792969 11.792969 11.792969 C 10.371094 11.792969 9.082031 11.332031 8.457031 10.628906 Z M 8.457031 10.628906"/>
</svg>

<svg xmlns="http://www.w3.org/2000/svg" width="32" height="32" viewBox="0 0 24 24">
    <path d="M23.91 9.047c0-.024 0-.043-.004-.067l-.035-.164c-.008-.035-.012-.07-.02-.109-.027-.117-.054-.238-.09-.355L23.75 8.3c-1.14-4.07-6.047-7.063-11.781-7.063-.078 0-.156.008-.235.008-.203.004-.406.012-.609.02-.117.007-.234.011-.352.02a21.455 21.455 0 0 0-1.097.12c-.239.035-.477.074-.711.121-.121.02-.238.047-.356.075a12.53 12.53 0 0 0-1.04.266c-.132.034-.26.077-.39.116-.238.079-.472.164-.706.25-.075.032-.153.059-.227.09C3.902 3.27 2.02 4.777.957 6.633c-.008.012-.016.023-.02.035-.109.187-.207.379-.292.574a3.142 3.142 0 0 0-.118.262 7.409 7.409 0 0 0-.289.84c-.008.027-.02.054-.027.082-.008.031-.008.062-.016.09A6.73 6.73 0 0 0 0 10.102l.008 3.984c0 4.863 5.254 8.676 11.96 8.676 6.634 0 12.032-3.969 12.032-8.848v-3.812c0-.356-.031-.707-.09-1.055zm-1.265 1.09c-.602.367-.852 1.574-1.137 3.242a18.05 18.05 0 0 1-.211 1.094.809.809 0 0 1-.152.32c-.786-.223-1.434-.18-1.918.137-.758.492-.891 1.472-.961 2a.09.09 0 0 1-.047.074.099.099 0 0 1-.094-.004 1.644 1.644 0 0 1-.2-.238c-.292-.395-.784-1.059-1.847-.942-.867.094-1.32 1.032-1.723 1.856-.144.297-.28.574-.41.754-.152.218-.465.3-.73.199a1.193 1.193 0 0 1-.059-.156c-.113-.317-.347-.985-1.281-1-.727-.008-1.059.574-1.246.925-.05.094-.129.235-.152.258a.482.482 0 0 1-.633-.152c-.086-.125-.082-.484-.078-.77.004-.547.007-1.23-.47-1.64-.245-.211-.573-.317-.995-.317-.16 0-.332.016-.52.047-.535.082-.984.485-1.343.809-.133.117-.293.262-.364.293-.039.02-.078.02-.113-.004a.164.164 0 0 1-.086-.129c-.02-.172-.066-.336-.117-.535-.301-1.125-1.531-1.18-2.266-1.211-.207-.012-.402-.02-.52-.047-.25-.059-.449-.27-.515-.555-.039-.156-.059-.613-.078-1.05-.074-1.622-.16-2.711-.676-3.055-.558-.375-.832-1.027-.7-1.645.013-.047.02-.09.032-.133.05-.183.11-.363.176-.542a7.317 7.317 0 0 1 .293-.672c.047-.09.094-.18.144-.266.047-.082.094-.16.141-.238a7.112 7.112 0 0 1 .414-.606c1.027-1.343 2.57-2.453 4.438-3.187.05-.02.105-.04.156-.059.234-.09.476-.176.723-.25a15.58 15.58 0 0 1 1.66-.418c.207-.039.422-.07.636-.101l.36-.047c.222-.028.445-.047.672-.067.113-.007.23-.011.347-.015.18-.012.356-.016.535-.02.082 0 .16-.004.239-.004 5.203 0 9.59 2.559 10.844 6.012.011.023.019.047.027.074l.094.293c.011.043.023.086.035.125.02.086.043.168.058.25l.035.153c.008.058.02.113.028.168a.982.982 0 0 1-.445.992zM11.969 21.934c-6.246 0-11.137-3.45-11.137-7.848 0 0-.004-2.313-.004-3.41.121.125.25.242.399.34.226.242.296 1.765.324 2.418.023.543.043.972.101 1.207.141.59.578 1.039 1.133 1.168.192.043.414.05.672.062.766.035 1.367.102 1.512.64.035.141.07.27.086.391.043.317.23.594.508.746.265.149.582.16.859.028.18-.082.36-.242.566-.426.282-.25.63-.563.922-.61.414-.066.707-.038.848.079.187.164.183.613.18 1.008-.004.441-.008.898.218 1.238.25.375.656.578 1.082.578.203 0 .41-.047.606-.145.254-.125.383-.37.511-.609.2-.367.297-.5.508-.488.356.004.407.144.512.445.074.219.168.488.45.617.644.293 1.398.102 1.796-.453.168-.234.316-.543.477-.87.293-.602.656-1.352 1.07-1.395.586-.067.836.261 1.094.613.144.187.277.367.472.472a.92.92 0 0 0 1.352-.695c.059-.422.152-1.125.59-1.41.285-.184.722-.191 1.293-.023a.686.686 0 0 0 .558-.067c.383-.215.535-.71.57-.855.079-.297.145-.7.223-1.16.14-.805.426-2.477.754-2.676l.098-.07v3.14c0 4.422-5.027 8.02-11.203 8.02zm0 0"/>
    <path d="M11.793 6.828c-2.555 0-4.555 1.274-4.555 2.899 0 .289.074.578.211.863.004.012.004.023.008.035.598 1.195 2.34 1.996 4.336 1.996 1.996 0 3.734-.8 4.332-1.996.004-.012.004-.023.008-.035.14-.285.21-.578.21-.863 0-1.625-2-2.899-4.55-2.899zm0 .828c2.016 0 3.723.95 3.723 2.07 0 .051-.004.106-.012.16-.004-.003-.008-.003-.012-.003a8.706 8.706 0 0 0-.781-.258l-.121-.035c-.262-.07-.527-.13-.797-.18l-.145-.023a9.573 9.573 0 0 0-.835-.11c-.04-.004-.079-.007-.118-.007a9.837 9.837 0 0 0-.902-.04c-.305 0-.605.012-.902.04-.04 0-.082.003-.121.007a9.682 9.682 0 0 0-.832.11l-.149.023a10.188 10.188 0 0 0-.914.215c-.27.074-.531.16-.785.258 0 0-.004 0-.008.004-.008-.055-.016-.11-.016-.16 0-1.122 1.707-2.07 3.727-2.07zM8.457 10.63c.016-.004.027-.012.043-.016.215-.078.438-.148.66-.21.04-.008.074-.02.11-.032.23-.059.468-.11.71-.152.047-.008.094-.02.145-.028.242-.039.488-.07.738-.093.043-.004.082-.004.125-.008a10.803 10.803 0 0 1 1.605 0c.044.004.087.004.126.008.25.023.496.054.742.093.047.008.094.02.144.028.239.043.477.094.707.152.04.012.075.024.11.031.226.063.445.133.66.211.016.008.031.012.043.016-.625.703-1.91 1.164-3.332 1.164s-2.711-.461-3.336-1.164zm0 0"/>
</svg>
